X:43
T:Czar of Russia's Favorite--Hornpipe
R:hornpipe
M:C|
L:1/8
K:F
"F"[f2A2]AB cAcA|[f2A2]AB cAcA|"Bb"dcBA G2ga|"C7"bgaf fedc|
"F"[f2A2]AB cAcA|[f2A2]AB cAcA|"Bb"dcBA "C"G2ga|"C7"bgfe "F"f2z2:|
"F"a2fa fafa|"C7"g2eg egeg|"F"a2fa fafa|"G7"gfed "C"c2de|
"Dm"fdfd "C"ecec|"Dm"fdfd "C"ecec|"Dm"fagf "G7"edc=B|1 "C"cGEG Cefg:|2 "C"cGEG Cgfe|]
